X:2915
T: Jack's Maggot
O:england
N: Duple minor longways
N: Playford Ball
N: Playford, "Twenty Four New Country Dances", 1702
M: C|
L: 1/8
K: E
|: ed \
| "E"e2E2 G2B2 | "A"cBcd "B7"e2f2 | "E"gab2 "A"cde2 | "F#m"f3g "B7"f2ed \
| "E"e2E2 G2B2 | "A"cde2 "B7"d2ba | "E"g2e2 "B7"f2d2 | "E"e4- e2 :|
|: ga \
| "E"b2g2- g2b2 | "C#m"g2e2- e2fg | "F#m"agfe d2e2 | "B7"f3g f2ga \
| "E"b2g2 e2g2 | B2e2 G2B2 | "F#m"e3f "B7"~f3e | "E"e4- e2 :|
%%sep 8 8 8cm


